X: 06085
T: SALTWATER JIG
C: Bob McQuillen June'81
B: Bob's Note Book 6 #85
%R: jig
Z: 2021 John Chambers <jc:trillian.mit.edu>
M: 6/8
L: 1/8
K: G
E \
| DGG GBd | cBc AFD | DAA ABc | ded BGG |\
| DGG GBd | cdc AFD | ded cAF | AGG G2 :|
|: A \
| BGG DGA | Bdc BGG | AFF DFG | ABc BGG |\
| BGG DGA | BdB cAA | cAF DFG | BGG G2 :|
%%begintext align
%% At the sea side Wells
%% Beach, Maine. This tune
%% came out of my old flute
%% that April and Pete gave me.
%%endtext

%%sep 1 1 500

%%sep 1 1 500

